images/50599941.svg

<?xml version="1.0" encoding="UTF-8"?>
<svg xmlns="http://www.w3.org/2000/svg" xmlns:xlink="http://www.w3.org/1999/xlink" width="300pt" height="300pt" viewBox="0 0 300 300" version="1.1">
<defs>
<g>
<symbol overflow="visible" id="glyph0-0">
<path style="stroke:none;" d="M 0.453125 1.59375 L 0.453125 -6.34375 L 4.953125 -6.34375 L 4.953125 1.59375 Z M 0.953125 1.09375 L 4.453125 1.09375 L 4.453125 -5.84375 L 0.953125 -5.84375 Z M 0.953125 1.09375 "/>
</symbol>
<symbol overflow="visible" id="glyph0-1">
<path style="stroke:none;" d="M 3.546875 -5.953125 C 2.898438 -5.953125 2.382812 -5.710938 2 -5.234375 C 1.625 -4.753906 1.4375 -4.101562 1.4375 -3.28125 C 1.4375 -2.445312 1.625 -1.789062 2 -1.3125 C 2.382812 -0.832031 2.898438 -0.59375 3.546875 -0.59375 C 4.191406 -0.59375 4.703125 -0.832031 5.078125 -1.3125 C 5.453125 -1.789062 5.640625 -2.445312 5.640625 -3.28125 C 5.640625 -4.101562 5.453125 -4.753906 5.078125 -5.234375 C 4.703125 -5.710938 4.191406 -5.953125 3.546875 -5.953125 Z M 3.546875 -6.6875 C 4.460938 -6.6875 5.195312 -6.375 5.75 -5.75 C 6.300781 -5.132812 6.578125 -4.3125 6.578125 -3.28125 C 6.578125 -2.238281 6.300781 -1.410156 5.75 -0.796875 C 5.195312 -0.179688 4.460938 0.125 3.546875 0.125 C 2.617188 0.125 1.878906 -0.179688 1.328125 -0.796875 C 0.773438 -1.410156 0.5 -2.238281 0.5 -3.28125 C 0.5 -4.3125 0.773438 -5.132812 1.328125 -5.75 C 1.878906 -6.375 2.617188 -6.6875 3.546875 -6.6875 Z M 3.546875 -6.6875 "/>
</symbol>
<symbol overflow="visible" id="glyph0-2">
<path style="stroke:none;" d="M 0.890625 -6.5625 L 2.078125 -6.5625 L 4.984375 -1.078125 L 4.984375 -6.5625 L 5.84375 -6.5625 L 5.84375 0 L 4.65625 0 L 1.75 -5.484375 L 1.75 0 L 0.890625 0 Z M 0.890625 -6.5625 "/>
</symbol>
<symbol overflow="visible" id="glyph0-3">
<path style="stroke:none;" d="M 0.890625 -6.5625 L 1.765625 -6.5625 L 1.765625 -3.875 L 5 -3.875 L 5 -6.5625 L 5.890625 -6.5625 L 5.890625 0 L 5 0 L 5 -3.125 L 1.765625 -3.125 L 1.765625 0 L 0.890625 0 Z M 0.890625 -6.5625 "/>
</symbol>
<symbol overflow="visible" id="glyph1-0">
<path style="stroke:none;" d="M 0.40625 1.421875 L 0.40625 -5.640625 L 4.40625 -5.640625 L 4.40625 1.421875 Z M 0.84375 0.96875 L 3.953125 0.96875 L 3.953125 -5.1875 L 0.84375 -5.1875 Z M 0.84375 0.96875 "/>
</symbol>
<symbol overflow="visible" id="glyph1-1">
<path style="stroke:none;" d="M 3.6875 -5.015625 L 3.6875 -2.84375 L 5.859375 -2.84375 L 5.859375 -2.171875 L 3.6875 -2.171875 L 3.6875 0 L 3.03125 0 L 3.03125 -2.171875 L 0.84375 -2.171875 L 0.84375 -2.84375 L 3.03125 -2.84375 L 3.03125 -5.015625 Z M 3.6875 -5.015625 "/>
</symbol>
</g>
</defs>
<g id="surface16505">
<rect x="0" y="0" width="300" height="300" style="fill:rgb(100%,100%,100%);fill-opacity:1;stroke:none;"/>
<path style="fill:none;stroke-width:1.2;stroke-linecap:butt;stroke-linejoin:miter;stroke:rgb(100%,0%,0%);stroke-opacity:1;stroke-miterlimit:10;" d="M 76.480469 137.296875 L 79.328125 147.332031 "/>
<path style="fill:none;stroke-width:1.2;stroke-linecap:butt;stroke-linejoin:miter;stroke:rgb(0%,0%,0%);stroke-opacity:1;stroke-miterlimit:10;" d="M 79.328125 147.332031 L 82.179688 157.367188 "/>
<path style="fill:none;stroke-width:1.2;stroke-linecap:butt;stroke-linejoin:miter;stroke:rgb(100%,0%,0%);stroke-opacity:1;stroke-miterlimit:10;" d="M 81.203125 135.957031 L 84.050781 145.992188 "/>
<path style="fill:none;stroke-width:1.2;stroke-linecap:butt;stroke-linejoin:miter;stroke:rgb(0%,0%,0%);stroke-opacity:1;stroke-miterlimit:10;" d="M 84.050781 145.992188 L 86.902344 156.023438 "/>
<path style=" stroke:none;fill-rule:nonzero;fill:rgb(100%,100%,100%);fill-opacity:1;" d="M 74.839844 131.125 L 82.839844 131.125 L 82.839844 142.125 L 74.839844 142.125 Z M 74.839844 131.125 "/>
<g style="fill:rgb(100%,0%,0%);fill-opacity:1;">
  <use xlink:href="#glyph0-1" x="74.839844" y="139.788086"/>
</g>
<path style="fill:none;stroke-width:1.2;stroke-linecap:butt;stroke-linejoin:miter;stroke:rgb(0%,0%,0%);stroke-opacity:1;stroke-miterlimit:10;" d="M 84.542969 156.695312 L 77.277344 164.183594 "/>
<path style="fill:none;stroke-width:1.2;stroke-linecap:butt;stroke-linejoin:miter;stroke:rgb(0%,0%,100%);stroke-opacity:1;stroke-miterlimit:10;" d="M 77.277344 164.183594 L 70.011719 171.667969 "/>
<path style="fill:none;stroke-width:1.2;stroke-linecap:butt;stroke-linejoin:miter;stroke:rgb(0%,0%,0%);stroke-opacity:1;stroke-miterlimit:10;" d="M 84.542969 156.695312 L 104.773438 161.792969 "/>
<path style="fill:none;stroke-width:1.2;stroke-linecap:butt;stroke-linejoin:miter;stroke:rgb(0%,0%,100%);stroke-opacity:1;stroke-miterlimit:10;" d="M 70.011719 171.667969 L 59.894531 169.117188 "/>
<path style="fill:none;stroke-width:1.2;stroke-linecap:butt;stroke-linejoin:miter;stroke:rgb(0%,0%,0%);stroke-opacity:1;stroke-miterlimit:10;" d="M 59.894531 169.117188 L 49.78125 166.570312 "/>
<path style=" stroke:none;fill-rule:nonzero;fill:rgb(100%,100%,100%);fill-opacity:1;" d="M 63.011719 166.167969 L 77.011719 166.167969 L 77.011719 177.167969 L 63.011719 177.167969 Z M 63.011719 166.167969 "/>
<g style="fill:rgb(0%,0%,100%);fill-opacity:1;">
  <use xlink:href="#glyph0-2" x="63.011719" y="174.831055"/>
  <use xlink:href="#glyph0-3" x="69.989258" y="174.831055"/>
</g>
<path style="fill:none;stroke-width:1.2;stroke-linecap:butt;stroke-linejoin:miter;stroke:rgb(0%,0%,0%);stroke-opacity:1;stroke-miterlimit:10;" d="M 49.78125 166.570312 L 35.25 181.542969 "/>
<path style="fill:none;stroke-width:1.2;stroke-linecap:butt;stroke-linejoin:miter;stroke:rgb(0%,0%,0%);stroke-opacity:1;stroke-miterlimit:10;" d="M 104.773438 161.792969 L 112.539062 181.15625 "/>
<path style="fill:none;stroke-width:1.2;stroke-linecap:butt;stroke-linejoin:miter;stroke:rgb(0%,0%,0%);stroke-opacity:1;stroke-miterlimit:10;" d="M 110.105469 161.902344 L 116.320312 177.394531 "/>
<path style="fill:none;stroke-width:1.2;stroke-linecap:butt;stroke-linejoin:miter;stroke:rgb(0%,0%,0%);stroke-opacity:1;stroke-miterlimit:10;" d="M 120.789062 148.421875 L 104.773438 161.792969 "/>
<path style="fill:none;stroke-width:1.2;stroke-linecap:butt;stroke-linejoin:miter;stroke:rgb(0%,0%,0%);stroke-opacity:1;stroke-miterlimit:10;" d="M 112.539062 181.15625 L 122.949219 180.457031 "/>
<path style="fill:none;stroke-width:1.2;stroke-linecap:butt;stroke-linejoin:miter;stroke:rgb(0%,0%,100%);stroke-opacity:1;stroke-miterlimit:10;" d="M 122.949219 180.457031 L 133.355469 179.753906 "/>
<path style="fill:none;stroke-width:1.2;stroke-linecap:butt;stroke-linejoin:miter;stroke:rgb(0%,0%,100%);stroke-opacity:1;stroke-miterlimit:10;" d="M 133.355469 179.753906 L 148.328125 194.285156 "/>
<path style="fill:none;stroke-width:1.2;stroke-linecap:butt;stroke-linejoin:miter;stroke:rgb(0%,0%,0%);stroke-opacity:1;stroke-miterlimit:10;" d="M 138.453125 159.523438 L 135.90625 169.636719 "/>
<path style="fill:none;stroke-width:1.2;stroke-linecap:butt;stroke-linejoin:miter;stroke:rgb(0%,0%,100%);stroke-opacity:1;stroke-miterlimit:10;" d="M 135.90625 169.636719 L 133.355469 179.753906 "/>
<path style=" stroke:none;fill-rule:nonzero;fill:rgb(100%,100%,100%);fill-opacity:1;" d="M 130.355469 174.253906 L 137.355469 174.253906 L 137.355469 185.253906 L 130.355469 185.253906 Z M 130.355469 174.253906 "/>
<g style="fill:rgb(0%,0%,100%);fill-opacity:1;">
  <use xlink:href="#glyph0-2" x="130.355469" y="182.916992"/>
</g>
<path style="fill:none;stroke-width:1.2;stroke-linecap:butt;stroke-linejoin:miter;stroke:rgb(0%,0%,100%);stroke-opacity:1;stroke-miterlimit:10;" d="M 148.328125 194.285156 L 158.363281 191.433594 "/>
<path style="fill:none;stroke-width:1.2;stroke-linecap:butt;stroke-linejoin:miter;stroke:rgb(0%,0%,0%);stroke-opacity:1;stroke-miterlimit:10;" d="M 158.363281 191.433594 L 168.398438 188.582031 "/>
<path style="fill:none;stroke-width:1.2;stroke-linecap:butt;stroke-linejoin:miter;stroke:rgb(0%,0%,100%);stroke-opacity:1;stroke-miterlimit:10;" d="M 148.992188 188.992188 L 157.019531 186.710938 "/>
<path style="fill:none;stroke-width:1.2;stroke-linecap:butt;stroke-linejoin:miter;stroke:rgb(0%,0%,0%);stroke-opacity:1;stroke-miterlimit:10;" d="M 157.019531 186.710938 L 165.046875 184.429688 "/>
<path style=" stroke:none;fill-rule:nonzero;fill:rgb(100%,100%,100%);fill-opacity:1;" d="M 145.328125 188.785156 L 152.328125 188.785156 L 152.328125 199.785156 L 145.328125 199.785156 Z M 145.328125 188.785156 "/>
<g style="fill:rgb(0%,0%,100%);fill-opacity:1;">
  <use xlink:href="#glyph0-2" x="145.328125" y="197.448242"/>
</g>
<path style="fill:none;stroke-width:1.2;stroke-linecap:butt;stroke-linejoin:miter;stroke:rgb(0%,0%,0%);stroke-opacity:1;stroke-miterlimit:10;" d="M 168.398438 188.582031 L 170.945312 178.46875 "/>
<path style="fill:none;stroke-width:1.2;stroke-linecap:butt;stroke-linejoin:miter;stroke:rgb(0%,0%,100%);stroke-opacity:1;stroke-miterlimit:10;" d="M 170.945312 178.46875 L 173.496094 168.351562 "/>
<path style="fill:none;stroke-width:1.2;stroke-linecap:butt;stroke-linejoin:miter;stroke:rgb(0%,0%,100%);stroke-opacity:1;stroke-miterlimit:10;" d="M 173.496094 168.351562 L 166.007812 161.085938 "/>
<path style="fill:none;stroke-width:1.2;stroke-linecap:butt;stroke-linejoin:miter;stroke:rgb(0%,0%,0%);stroke-opacity:1;stroke-miterlimit:10;" d="M 166.007812 161.085938 L 158.523438 153.820312 "/>
<path style="fill:none;stroke-width:1.2;stroke-linecap:butt;stroke-linejoin:miter;stroke:rgb(0%,0%,100%);stroke-opacity:1;stroke-miterlimit:10;" d="M 168.578125 170.421875 L 162.589844 164.609375 "/>
<path style="fill:none;stroke-width:1.2;stroke-linecap:butt;stroke-linejoin:miter;stroke:rgb(0%,0%,0%);stroke-opacity:1;stroke-miterlimit:10;" d="M 162.589844 164.609375 L 156.601562 158.796875 "/>
<path style=" stroke:none;fill-rule:nonzero;fill:rgb(100%,100%,100%);fill-opacity:1;" d="M 163.496094 160.851562 L 184.496094 160.851562 L 184.496094 175.851562 L 163.496094 175.851562 Z M 163.496094 160.851562 "/>
<g style="fill:rgb(0%,0%,100%);fill-opacity:1;">
  <use xlink:href="#glyph0-2" x="163.496094" y="172.953125"/>
  <use xlink:href="#glyph0-3" x="170.473633" y="172.953125"/>
</g>
<g style="fill:rgb(0%,0%,100%);fill-opacity:1;">
  <use xlink:href="#glyph1-1" x="177.488281" y="168.070312"/>
</g>
<path style="fill:none;stroke-width:1.2;stroke-linecap:butt;stroke-linejoin:miter;stroke:rgb(0%,0%,0%);stroke-opacity:1;stroke-miterlimit:10;" d="M 158.523438 153.820312 L 161.070312 143.707031 "/>
<path style="fill:none;stroke-width:1.2;stroke-linecap:butt;stroke-linejoin:miter;stroke:rgb(0%,0%,100%);stroke-opacity:1;stroke-miterlimit:10;" d="M 161.070312 143.707031 L 163.621094 133.589844 "/>
<path style="fill:none;stroke-width:1.2;stroke-linecap:butt;stroke-linejoin:miter;stroke:rgb(0%,0%,0%);stroke-opacity:1;stroke-miterlimit:10;" d="M 158.523438 153.820312 L 138.453125 159.523438 "/>
<path style="fill:none;stroke-width:1.2;stroke-linecap:butt;stroke-linejoin:miter;stroke:rgb(0%,0%,100%);stroke-opacity:1;stroke-miterlimit:10;" d="M 163.621094 133.589844 L 173.65625 130.738281 "/>
<path style="fill:none;stroke-width:1.2;stroke-linecap:butt;stroke-linejoin:miter;stroke:rgb(0%,0%,0%);stroke-opacity:1;stroke-miterlimit:10;" d="M 173.65625 130.738281 L 183.691406 127.890625 "/>
<path style=" stroke:none;fill-rule:nonzero;fill:rgb(100%,100%,100%);fill-opacity:1;" d="M 156.621094 128.089844 L 170.621094 128.089844 L 170.621094 139.089844 L 156.621094 139.089844 Z M 156.621094 128.089844 "/>
<g style="fill:rgb(0%,0%,100%);fill-opacity:1;">
  <use xlink:href="#glyph0-2" x="156.621094" y="136.75293"/>
  <use xlink:href="#glyph0-3" x="163.598633" y="136.75293"/>
</g>
<path style="fill:none;stroke-width:1.2;stroke-linecap:butt;stroke-linejoin:miter;stroke:rgb(0%,0%,0%);stroke-opacity:1;stroke-miterlimit:10;" d="M 183.691406 127.890625 L 198.660156 142.421875 "/>
<path style="fill:none;stroke-width:1.2;stroke-linecap:butt;stroke-linejoin:miter;stroke:rgb(0%,0%,0%);stroke-opacity:1;stroke-miterlimit:10;" d="M 188.605469 125.820312 L 200.582031 137.445312 "/>
<path style="fill:none;stroke-width:1.2;stroke-linecap:butt;stroke-linejoin:miter;stroke:rgb(0%,0%,0%);stroke-opacity:1;stroke-miterlimit:10;" d="M 188.789062 107.660156 L 183.691406 127.890625 "/>
<path style="fill:none;stroke-width:1.2;stroke-linecap:butt;stroke-linejoin:miter;stroke:rgb(0%,0%,0%);stroke-opacity:1;stroke-miterlimit:10;" d="M 198.660156 142.421875 L 218.730469 136.71875 "/>
<path style="fill:none;stroke-width:1.2;stroke-linecap:butt;stroke-linejoin:miter;stroke:rgb(0%,0%,0%);stroke-opacity:1;stroke-miterlimit:10;" d="M 218.730469 136.71875 L 223.828125 116.488281 "/>
<path style="fill:none;stroke-width:1.2;stroke-linecap:butt;stroke-linejoin:miter;stroke:rgb(0%,0%,0%);stroke-opacity:1;stroke-miterlimit:10;" d="M 214.480469 133.496094 L 218.558594 117.3125 "/>
<path style="fill:none;stroke-width:1.2;stroke-linecap:butt;stroke-linejoin:miter;stroke:rgb(0%,0%,0%);stroke-opacity:1;stroke-miterlimit:10;" d="M 218.730469 136.71875 L 233.703125 151.25 "/>
<path style="fill:none;stroke-width:1.2;stroke-linecap:butt;stroke-linejoin:miter;stroke:rgb(0%,0%,0%);stroke-opacity:1;stroke-miterlimit:10;" d="M 223.828125 116.488281 L 208.855469 101.957031 "/>
<path style="fill:none;stroke-width:1.2;stroke-linecap:butt;stroke-linejoin:miter;stroke:rgb(0%,0%,0%);stroke-opacity:1;stroke-miterlimit:10;" d="M 208.855469 101.957031 L 188.789062 107.660156 "/>
<path style="fill:none;stroke-width:1.2;stroke-linecap:butt;stroke-linejoin:miter;stroke:rgb(0%,0%,0%);stroke-opacity:1;stroke-miterlimit:10;" d="M 208.191406 107.25 L 192.136719 111.8125 "/>
<path style="fill:none;stroke-width:1.2;stroke-linecap:butt;stroke-linejoin:miter;stroke:rgb(0%,0%,0%);stroke-opacity:1;stroke-miterlimit:10;" d="M 188.789062 107.660156 L 173.816406 93.128906 "/>
<path style="fill:none;stroke-width:1.2;stroke-linecap:butt;stroke-linejoin:miter;stroke:rgb(0%,0%,0%);stroke-opacity:1;stroke-miterlimit:10;" d="M 234.375 153.609375 L 244.40625 150.761719 "/>
<path style="fill:none;stroke-width:1.2;stroke-linecap:butt;stroke-linejoin:miter;stroke:rgb(100%,0%,0%);stroke-opacity:1;stroke-miterlimit:10;" d="M 244.40625 150.761719 L 254.441406 147.910156 "/>
<path style="fill:none;stroke-width:1.2;stroke-linecap:butt;stroke-linejoin:miter;stroke:rgb(0%,0%,0%);stroke-opacity:1;stroke-miterlimit:10;" d="M 233.03125 148.886719 L 243.066406 146.039062 "/>
<path style="fill:none;stroke-width:1.2;stroke-linecap:butt;stroke-linejoin:miter;stroke:rgb(100%,0%,0%);stroke-opacity:1;stroke-miterlimit:10;" d="M 243.066406 146.039062 L 253.101562 143.1875 "/>
<path style="fill:none;stroke-width:1.2;stroke-linecap:butt;stroke-linejoin:miter;stroke:rgb(0%,0%,0%);stroke-opacity:1;stroke-miterlimit:10;" d="M 233.703125 151.25 L 231.152344 161.363281 "/>
<path style="fill:none;stroke-width:1.2;stroke-linecap:butt;stroke-linejoin:miter;stroke:rgb(0%,0%,100%);stroke-opacity:1;stroke-miterlimit:10;" d="M 231.152344 161.363281 L 228.605469 171.480469 "/>
<path style=" stroke:none;fill-rule:nonzero;fill:rgb(100%,100%,100%);fill-opacity:1;" d="M 249.773438 140.046875 L 257.773438 140.046875 L 257.773438 151.046875 L 249.773438 151.046875 Z M 249.773438 140.046875 "/>
<g style="fill:rgb(100%,0%,0%);fill-opacity:1;">
  <use xlink:href="#glyph0-1" x="249.773438" y="148.709961"/>
</g>
<path style="fill:none;stroke-width:1.2;stroke-linecap:butt;stroke-linejoin:miter;stroke:rgb(0%,0%,100%);stroke-opacity:1;stroke-miterlimit:10;" d="M 228.605469 171.480469 L 236.089844 178.746094 "/>
<path style="fill:none;stroke-width:1.2;stroke-linecap:butt;stroke-linejoin:miter;stroke:rgb(0%,0%,0%);stroke-opacity:1;stroke-miterlimit:10;" d="M 236.089844 178.746094 L 243.578125 186.011719 "/>
<path style=" stroke:none;fill-rule:nonzero;fill:rgb(100%,100%,100%);fill-opacity:1;" d="M 221.605469 165.980469 L 235.605469 165.980469 L 235.605469 176.980469 L 221.605469 176.980469 Z M 221.605469 165.980469 "/>
<g style="fill:rgb(0%,0%,100%);fill-opacity:1;">
  <use xlink:href="#glyph0-2" x="221.605469" y="174.643555"/>
  <use xlink:href="#glyph0-3" x="228.583008" y="174.643555"/>
</g>
<path style="fill:none;stroke-width:1.2;stroke-linecap:butt;stroke-linejoin:miter;stroke:rgb(0%,0%,0%);stroke-opacity:1;stroke-miterlimit:10;" d="M 243.578125 186.011719 L 243.890625 206.871094 "/>
<path style="fill:none;stroke-width:1.2;stroke-linecap:butt;stroke-linejoin:miter;stroke:rgb(0%,0%,0%);stroke-opacity:1;stroke-miterlimit:10;" d="M 264.4375 185.699219 L 243.578125 186.011719 "/>
<path style="fill:none;stroke-width:1.2;stroke-linecap:butt;stroke-linejoin:miter;stroke:rgb(0%,0%,0%);stroke-opacity:1;stroke-miterlimit:10;" d="M 243.890625 206.871094 L 264.75 206.558594 "/>
<path style="fill:none;stroke-width:1.2;stroke-linecap:butt;stroke-linejoin:miter;stroke:rgb(0%,0%,0%);stroke-opacity:1;stroke-miterlimit:10;" d="M 264.75 206.558594 L 264.4375 185.699219 "/>
<path style="fill:none;stroke-width:1.2;stroke-linecap:butt;stroke-linejoin:miter;stroke:rgb(0%,0%,0%);stroke-opacity:1;stroke-miterlimit:10;" d="M 138.453125 159.523438 L 120.789062 148.421875 "/>
<path style="fill:none;stroke-width:1.2;stroke-linecap:butt;stroke-linejoin:miter;stroke:rgb(0%,0%,0%);stroke-opacity:1;stroke-miterlimit:10;" d="M 134.074219 162.570312 L 119.941406 153.6875 "/>
<path style="fill:none;stroke-width:1.2;stroke-linecap:butt;stroke-linejoin:miter;stroke:rgb(0%,0%,0%);stroke-opacity:1;stroke-miterlimit:10;" d="M 120.789062 148.421875 L 119.382812 127.605469 "/>
</g>
</svg>

<svg xmlns="http://www.w3.org/2000/svg" xmlns:xlink="http://www.w3.org/1999/xlink" width="300pt" height="300pt" viewBox="0 0 300 300"><defs><symbol overflow="visible"><path d="M.453 1.594v-7.938h4.5v7.938zm.5-.5h3.5v-6.938h-3.5zm0 0"/></symbol><symbol overflow="visible" id="a"><path d="M3.547-5.953c-.65 0-1.164.242-1.547.72-.375.48-.563 1.13-.563 1.952 0 .835.188 1.49.563 1.967.383.48.898.72 1.547.72.644 0 1.156-.24 1.53-.72.376-.476.564-1.132.564-1.968 0-.822-.187-1.474-.562-1.954-.375-.477-.887-.72-1.53-.72zm0-.734c.914 0 1.648.312 2.203.937.55.617.828 1.438.828 2.47 0 1.042-.277 1.87-.828 2.483-.555.617-1.29.922-2.203.922-.93 0-1.668-.305-2.22-.922C.774-1.41.5-2.237.5-3.28c0-1.033.273-1.853.828-2.47.55-.625 1.29-.938 2.22-.938zm0 0"/></symbol><symbol overflow="visible" id="b"><path d="M.89-6.563H2.08l2.906 5.485v-5.484h.86V0H4.656L1.75-5.484V0H.89zm0 0"/></symbol><symbol overflow="visible" id="c"><path d="M.89-6.563h.876v2.688H5v-2.688h.89V0H5v-3.125H1.766V0H.89zm0 0"/></symbol><symbol overflow="visible"><path d="M.406 1.422V-5.64h4V1.42zM.844.97h3.11v-6.157H.843zm0 0"/></symbol><symbol overflow="visible" id="d"><path d="M3.688-5.016v2.172h2.17v.672H3.69V0H3.03v-2.172H.845v-.672H3.03v-2.172zm0 0"/></symbol></defs><g><path fill="#fff" d="M0 0h300v300H0z"/><path d="M76.48 137.297l2.848 10.035" stroke-width="1.2" stroke="#f00" stroke-miterlimit="10" fill="none"/><path d="M79.328 147.332l2.852 10.035" stroke-width="1.2" stroke="#000" stroke-miterlimit="10" fill="none"/><path d="M81.203 135.957l2.848 10.035" stroke-width="1.2" stroke="#f00" stroke-miterlimit="10" fill="none"/><path d="M84.05 145.992l2.852 10.03" stroke-width="1.2" stroke="#000" stroke-miterlimit="10" fill="none"/><path d="M74.84 131.125h8v11h-8zm0 0" fill="#fff"/><use xlink:href="#a" x="74.84" y="139.788" fill="#f00"/><path d="M84.543 156.695l-7.266 7.49" stroke-width="1.2" stroke="#000" stroke-miterlimit="10" fill="none"/><path d="M77.277 164.184l-7.265 7.484" stroke-width="1.2" stroke="#00f" stroke-miterlimit="10" fill="none"/><path d="M84.543 156.695l20.23 5.098" stroke-width="1.2" stroke="#000" stroke-miterlimit="10" fill="none"/><path d="M70.012 171.668l-10.117-2.55" stroke-width="1.2" stroke="#00f" stroke-miterlimit="10" fill="none"/><path d="M59.895 169.117L49.78 166.57" stroke-width="1.2" stroke="#000" stroke-miterlimit="10" fill="none"/><path d="M63.012 166.168h14v11h-14zm0 0" fill="#fff"/><g fill="#00f"><use xlink:href="#b" x="63.012" y="174.831"/><use xlink:href="#c" x="69.989" y="174.831"/></g><path d="M49.78 166.57l-14.53 14.973M104.773 161.793l7.766 19.363M110.105 161.902l6.215 15.493M120.79 148.422l-16.017 13.37M112.54 181.156l10.41-.7" stroke-width="1.2" stroke="#000" stroke-miterlimit="10" fill="none"/><path d="M122.95 180.457l10.405-.703M133.355 179.754l14.973 14.53" stroke-width="1.2" stroke="#00f" stroke-miterlimit="10" fill="none"/><path d="M138.453 159.523l-2.547 10.114" stroke-width="1.2" stroke="#000" stroke-miterlimit="10" fill="none"/><path d="M135.906 169.637l-2.55 10.117" stroke-width="1.2" stroke="#00f" stroke-miterlimit="10" fill="none"/><path d="M130.355 174.254h7v11h-7zm0 0" fill="#fff"/><use xlink:href="#b" x="130.355" y="182.917" fill="#00f"/><path d="M148.328 194.285l10.035-2.85" stroke-width="1.2" stroke="#00f" stroke-miterlimit="10" fill="none"/><path d="M158.363 191.434l10.035-2.852" stroke-width="1.2" stroke="#000" stroke-miterlimit="10" fill="none"/><path d="M148.992 188.992l8.028-2.28" stroke-width="1.2" stroke="#00f" stroke-miterlimit="10" fill="none"/><path d="M157.02 186.71l8.027-2.28" stroke-width="1.2" stroke="#000" stroke-miterlimit="10" fill="none"/><path d="M145.328 188.785h7v11h-7zm0 0" fill="#fff"/><use xlink:href="#b" x="145.328" y="197.448" fill="#00f"/><path d="M168.398 188.582l2.547-10.113" stroke-width="1.2" stroke="#000" stroke-miterlimit="10" fill="none"/><path d="M170.945 178.47l2.55-10.118M173.496 168.352l-7.488-7.266" stroke-width="1.2" stroke="#00f" stroke-miterlimit="10" fill="none"/><path d="M166.008 161.086l-7.485-7.266" stroke-width="1.2" stroke="#000" stroke-miterlimit="10" fill="none"/><path d="M168.578 170.422l-5.988-5.813" stroke-width="1.2" stroke="#00f" stroke-miterlimit="10" fill="none"/><path d="M162.59 164.61l-5.988-5.813" stroke-width="1.2" stroke="#000" stroke-miterlimit="10" fill="none"/><path d="M163.496 160.852h21v15h-21zm0 0" fill="#fff"/><g fill="#00f"><use xlink:href="#b" x="163.496" y="172.953"/><use xlink:href="#c" x="170.474" y="172.953"/></g><use xlink:href="#d" x="177.488" y="168.07" fill="#00f"/><path d="M158.523 153.82l2.547-10.113" stroke-width="1.2" stroke="#000" stroke-miterlimit="10" fill="none"/><path d="M161.07 143.707l2.55-10.117" stroke-width="1.2" stroke="#00f" stroke-miterlimit="10" fill="none"/><path d="M158.523 153.82l-20.07 5.703" stroke-width="1.2" stroke="#000" stroke-miterlimit="10" fill="none"/><path d="M163.62 133.59l10.036-2.852" stroke-width="1.2" stroke="#00f" stroke-miterlimit="10" fill="none"/><path d="M173.656 130.738l10.035-2.847" stroke-width="1.2" stroke="#000" stroke-miterlimit="10" fill="none"/><path d="M156.62 128.09h14v11h-14zm0 0" fill="#fff"/><g fill="#00f"><use xlink:href="#b" x="156.621" y="136.753"/><use xlink:href="#c" x="163.599" y="136.753"/></g><path d="M183.69 127.89l14.97 14.532M188.605 125.82l11.977 11.625M188.79 107.66l-5.1 20.23M198.66 142.422l20.07-5.703M218.73 136.72l5.098-20.232M214.48 133.496l4.08-16.184M218.73 136.72l14.973 14.53M223.828 116.488l-14.973-14.53M208.855 101.957l-20.066 5.703M208.19 107.25l-16.053 4.563M188.79 107.66l-14.974-14.53M234.375 153.61l10.03-2.848" stroke-width="1.2" stroke="#000" stroke-miterlimit="10" fill="none"/><path d="M244.406 150.762l10.035-2.852" stroke-width="1.2" stroke="#f00" stroke-miterlimit="10" fill="none"/><path d="M233.03 148.887l10.036-2.848" stroke-width="1.2" stroke="#000" stroke-miterlimit="10" fill="none"/><path d="M243.066 146.04l10.036-2.852" stroke-width="1.2" stroke="#f00" stroke-miterlimit="10" fill="none"/><path d="M233.703 151.25l-2.55 10.113" stroke-width="1.2" stroke="#000" stroke-miterlimit="10" fill="none"/><path d="M231.152 161.363l-2.547 10.117" stroke-width="1.2" stroke="#00f" stroke-miterlimit="10" fill="none"/><path d="M249.773 140.047h8v11h-8zm0 0" fill="#fff"/><use xlink:href="#a" x="249.773" y="148.71" fill="#f00"/><path d="M228.605 171.48l7.485 7.266" stroke-width="1.2" stroke="#00f" stroke-miterlimit="10" fill="none"/><path d="M236.09 178.746l7.488 7.266" stroke-width="1.2" stroke="#000" stroke-miterlimit="10" fill="none"/><path d="M221.605 165.98h14v11h-14zm0 0" fill="#fff"/><g fill="#00f"><use xlink:href="#b" x="221.605" y="174.644"/><use xlink:href="#c" x="228.583" y="174.644"/></g><path d="M243.578 186.012l.313 20.86M264.438 185.7l-20.86.312M243.89 206.87l20.86-.31M264.75 206.56l-.313-20.86M138.453 159.523l-17.664-11.1M134.074 162.57l-14.133-8.882M120.79 148.422l-1.407-20.817" stroke-width="1.2" stroke="#000" stroke-miterlimit="10" fill="none"/></g></svg>
